optimized/20/solid/wifi.svg

<svg xmlns="http://www.w3.org/2000/svg" viewBox="0 0 20 20">
  <path fill-rule="evenodd" d="M0.675986 6.94117C3.03728 4.51116 6.34284 3 10 3C13.6572 3 16.9628 4.51116 19.3241 6.94117C19.6098 7.23522 19.6064 7.70424 19.3165 7.99417L18.9629 8.34776C18.8209 8.48979 18.6278 8.56891 18.427 8.56741C18.2261 8.56591 18.0343 8.48391 17.8944 8.33977C15.8944 6.27907 13.0973 5 10 5C6.90281 5 4.10564 6.27907 2.10566 8.33977C1.96577 8.48391 1.77392 8.56591 1.57307 8.56741C1.37222 8.56891 1.17916 8.48979 1.03713 8.34776L0.683537 7.99417C0.39361 7.70424 0.390247 7.23522 0.675986 6.94117ZM3.50123 9.77378C5.13848 8.06527 7.44548 7 10 7C12.5546 7 14.8616 8.06527 16.4988 9.77378C16.7811 10.0684 16.7762 10.5345 16.4877 10.823L16.134 11.1767C15.9913 11.3194 15.797 11.3986 15.5952 11.3963C15.3933 11.394 15.2009 11.3104 15.0615 11.1645C13.786 9.82985 11.9906 9 10 9C8.00951 9 6.21406 9.82985 4.93858 11.1645C4.79912 11.3104 4.60672 11.394 4.40487 11.3963C4.20302 11.3986 4.00877 11.3194 3.86604 11.1767L3.5124 10.823C3.22391 10.5345 3.21894 10.0684 3.50123 9.77378ZM6.32061 12.6144C7.23335 11.6229 8.5445 11 10 11C11.4556 11 12.7667 11.6229 13.6794 12.6144C13.9518 12.9103 13.9423 13.3683 13.658 13.6527L13.3041 14.0066C13.1591 14.1516 12.9611 14.2309 12.7562 14.2261C12.5512 14.2213 12.3572 14.1328 12.2192 13.9812C11.6694 13.3773 10.8793 13 10 13C9.12075 13 8.33066 13.3773 7.7809 13.9812C7.64289 14.1328 7.44884 14.2213 7.24388 14.2261C7.03893 14.2309 6.84094 14.1516 6.69598 14.0066L6.34208 13.6527C6.05771 13.3683 6.04824 12.9103 6.32061 12.6144ZM9.11615 15.3661C9.34153 15.1407 9.65506 15 10 15C10.345 15 10.6585 15.1407 10.8839 15.3661C11.1768 15.659 11.1768 16.1339 10.8839 16.4268L10.5304 16.7803C10.2375 17.0732 9.76259 17.0732 9.4697 16.7803L9.11615 16.4268C8.82325 16.1339 8.82325 15.659 9.11615 15.3661Z" clip-rule="evenodd"/>
</svg>

<svg xmlns="http://www.w3.org/2000/svg" viewBox="0 0 20 20" fill="currentColor" aria-hidden="true">
  <path fill-rule="evenodd" d="M.676 6.941A12.964 12.964 0 0110 3c3.657 0 6.963 1.511 9.324 3.941a.75.75 0 01-.008 1.053l-.353.354a.75.75 0 01-1.069-.008C15.894 6.28 13.097 5 10 5 6.903 5 4.106 6.28 2.106 8.34a.75.75 0 01-1.069.008l-.353-.354a.75.75 0 01-.008-1.053zm2.825 2.833A8.976 8.976 0 0110 7a8.976 8.976 0 016.499 2.774.75.75 0 01-.011 1.049l-.354.354a.75.75 0 01-1.072-.012A6.978 6.978 0 0010 9c-1.99 0-3.786.83-5.061 2.165a.75.75 0 01-1.073.012l-.354-.354a.75.75 0 01-.01-1.05zm2.82 2.84A4.989 4.989 0 0110 11c1.456 0 2.767.623 3.68 1.614a.75.75 0 01-.022 1.039l-.354.354a.75.75 0 01-1.085-.026A2.99 2.99 0 0010 13c-.88 0-1.67.377-2.22.981a.75.75 0 01-1.084.026l-.354-.354a.75.75 0 01-.021-1.039zm2.795 2.752a1.248 1.248 0 011.768 0 .75.75 0 010 1.06l-.354.354a.75.75 0 01-1.06 0l-.354-.353a.75.75 0 010-1.06z" clip-rule="evenodd"/>
</svg>
